svg/fluentui-system-icons/ic_fluent_beaker_settings_20_filled.svg

<svg width="20" height="20" viewBox="0 0 20 20" fill="none" xmlns="http://www.w3.org/2000/svg">
<path d="M7.24987 4V8.74704C7.24987 9.15897 7.14809 9.5645 6.95357 9.9276L6.11121 11.5H9.88934C10.57 10.4561 11.5956 9.65762 12.8044 9.2663C12.7683 9.09622 12.7499 8.92221 12.7499 8.74704V4H13.4999C13.776 4 13.9999 3.77614 13.9999 3.5C13.9999 3.22386 13.776 3 13.4999 3H6.49988C6.22374 3 5.99988 3.22386 5.99988 3.5C5.99988 3.77614 6.22374 4 6.49988 4H7.24987ZM5.57549 12.5H9.37482C9.13274 13.1199 8.99988 13.7944 8.99988 14.5C8.99988 15.4002 9.21615 16.2499 9.59956 16.9999H5.67005C4.53644 16.9999 3.81252 15.7909 4.34783 14.7916L5.57549 12.5ZM12.0652 11.442C12.3685 12.5231 11.7225 13.642 10.6346 13.9199L10.1735 14.0377C10.1586 14.1897 10.1509 14.3438 10.1509 14.4999C10.1509 14.6875 10.162 14.8725 10.1835 15.0541L10.5331 15.1368C11.6525 15.4015 12.3185 16.5536 11.9892 17.6557L11.8629 18.0785C12.12 18.2817 12.3998 18.4559 12.6975 18.5964L13.0225 18.2523C13.8123 17.416 15.1431 17.4167 15.932 18.2538L16.2694 18.6118C16.5618 18.4769 16.8372 18.3095 17.0912 18.1142L16.9351 17.5575C16.6318 16.4764 17.2778 15.3575 18.3657 15.0796L18.8263 14.9619C18.8412 14.81 18.8489 14.6559 18.8489 14.4999C18.8489 14.3121 18.8378 14.127 18.8162 13.9452L18.4672 13.8627C17.3478 13.5981 16.6818 12.4459 17.0111 11.3438L17.1373 10.9215C16.8801 10.7182 16.6003 10.5439 16.3025 10.4034L15.9778 10.7472C15.188 11.5835 13.8573 11.5828 13.0683 10.7457L12.7309 10.3877C12.4385 10.5226 12.1631 10.6899 11.909 10.8852L12.0652 11.442ZM14.4999 15.4999C13.9476 15.4999 13.4999 15.0521 13.4999 14.4999C13.4999 13.9476 13.9476 13.4999 14.4999 13.4999C15.0522 13.4999 15.4999 13.9476 15.4999 14.4999C15.4999 15.0521 15.0522 15.4999 14.4999 15.4999Z" fill="#212121"/>
</svg>

<svg xmlns="http://www.w3.org/2000/svg" width="20" height="20"><path d="M7.25 4v4.747a2.5 2.5 0 0 1-.296 1.18L6.11 11.5h3.78a5.514 5.514 0 0 1 2.915-2.234 2.5 2.5 0 0 1-.054-.519V4h.75a.5.5 0 0 0 0-1h-7a.5.5 0 0 0 0 1h.75Zm-1.675 8.5h3.8a5.486 5.486 0 0 0-.375 2c0 .9.216 1.75.6 2.5H5.67a1.5 1.5 0 0 1-1.322-2.208L5.575 12.5Zm6.49-1.058a2 2 0 0 1-1.43 2.478l-.461.118a4.735 4.735 0 0 0 .01 1.016l.35.083a2 2 0 0 1 1.455 2.519l-.126.422c.257.204.537.378.835.518l.325-.344a2 2 0 0 1 2.909.002l.337.358c.293-.135.568-.302.822-.498l-.156-.556a2 2 0 0 1 1.43-2.478l.461-.118a4.731 4.731 0 0 0-.01-1.017l-.349-.082a2 2 0 0 1-1.456-2.52l.126-.421a4.318 4.318 0 0 0-.835-.519l-.324.344a2 2 0 0 1-2.91-.001l-.337-.358a4.316 4.316 0 0 0-.822.497l.156.557ZM14.5 15.5a1 1 0 1 1 0-2 1 1 0 0 1 0 2Z"/></svg>
